newicons/breeno_shortcuts.svg

<?xml version="1.0" encoding="UTF-8" standalone="no"?>
<svg
   viewBox="0 0 48 48"
   version="1.1"
   id="svg1"
   sodipodi:docname="breeno_shortcuts.svg"
   inkscape:version="1.2.2 (b0a8486541, 2022-12-01)"
   xml:space="preserve"
   xmlns:inkscape="http://www.inkscape.org/namespaces/inkscape"
   xmlns:sodipodi="http://sodipodi.sourceforge.net/DTD/sodipodi-0.dtd"
   xmlns="http://www.w3.org/2000/svg"
   xmlns:svg="http://www.w3.org/2000/svg"><sodipodi:namedview
     id="namedview1"
     pagecolor="#505050"
     bordercolor="#eeeeee"
     borderopacity="1"
     inkscape:showpageshadow="0"
     inkscape:pageopacity="0"
     inkscape:pagecheckerboard="0"
     inkscape:deskcolor="#505050"
     inkscape:zoom="17.8125"
     inkscape:cx="13.922807"
     inkscape:cy="24.02807"
     inkscape:window-width="1918"
     inkscape:window-height="1053"
     inkscape:window-x="0"
     inkscape:window-y="0"
     inkscape:window-maximized="1"
     inkscape:current-layer="svg1"
     showgrid="false" /><defs
     id="defs1"><style
       id="style1">.a { fill:none;stroke:#fff;stroke-linecap:round;stroke-linejoin:round; }
</style></defs><path
     style="fill:none;stroke:#ffffff;stroke-linecap:round;stroke-linejoin:round;stroke-dashoffset:3.6;stroke-opacity:1"
     d="M 32.843437,19.171719 A 13.671719,13.671719 0 0 1 19.171719,32.843437 13.671719,13.671719 0 0 1 5.5,19.171719 13.671719,13.671719 0 0 1 19.171719,5.5 13.671719,13.671719 0 0 1 32.843437,19.171719 Z"
     id="path1101" /><path
     style="fill:none;stroke:#ffffff;stroke-linecap:round;stroke-linejoin:round;stroke-dashoffset:3.6;stroke-opacity:1"
     d="M 42.5,28.828281 A 13.671719,13.671719 0 0 1 28.828281,42.5 13.671719,13.671719 0 0 1 15.156563,28.828281 13.671719,13.671719 0 0 1 28.828281,15.156563 13.671719,13.671719 0 0 1 42.5,28.828281 Z"
     id="circle1083" /></svg>

<?xml version="1.0" encoding="UTF-8"?><svg id="a" xmlns="http://www.w3.org/2000/svg" viewBox="0 0 48 48"><defs><style>.d{fill:none;stroke:#fff;stroke-linecap:round;stroke-linejoin:round;}</style></defs><path id="b" class="d" d="M32.8434,19.1717c0,7.5507-6.121,13.6717-13.6717,13.6717s-13.6717-6.121-13.6717-13.6717,6.121-13.6717,13.6717-13.6717,13.6717,6.121,13.6717,13.6717Z"/><path id="c" class="d" d="M42.5,28.8283c0,7.5507-6.121,13.6717-13.6717,13.6717s-13.6717-6.121-13.6717-13.6717,6.121-13.6717,13.6717-13.6717,13.6717,6.121,13.6717,13.6717Z"/></svg>
